src/assets/tokens/MBTC.svg

<svg fill="none" height="512" viewBox="0 0 512 512" width="512" xmlns="http://www.w3.org/2000/svg" xmlns:xlink="http://www.w3.org/1999/xlink"><linearGradient id="a" gradientUnits="userSpaceOnUse" x1="-83.1237" x2="608.321" y1="29.6875" y2="402"><stop offset="0" stop-color="#2a2cbf"/><stop offset=".482532" stop-color="#6335ff"/><stop offset=".905715" stop-color="#bd89ff"/></linearGradient><path d="m503.37 317.686c-34.061 136.609-172.439 219.746-309.079 185.68-136.5825-34.057-219.7292-172.428-185.65326-309.026 34.04596-136.6231 172.42426-219.7666 309.02126-185.70952 136.631 34.05712 219.772 172.44352 185.708 309.05752l.002-.002z" fill="url(#a)"/><path d="m368.457 219.834c5.076-33.961-20.762-52.216-56.095-64.394l11.462-46.002-27.985-6.978-11.158 44.791c-7.357-1.836-14.912-3.566-22.422-5.281l11.239-45.087-27.968-6.9777-11.468 45.9877c-6.088-1.387-12.068-2.758-17.869-4.202l.032-.145-38.592-9.643-7.444 29.909s20.762 4.762 20.325 5.055c11.332 2.831 13.381 10.337 13.041 16.287l-13.056 52.408c.78.198 1.792.485 2.909.934-.934-.232-1.927-.485-2.958-.732l-18.301 73.416c-1.385 3.445-4.9 8.615-12.823 6.652.28.407-20.34-5.079-20.34-5.079l-13.894 32.054 36.418 9.085c6.775 1.7 13.414 3.479 19.952 5.151l-11.58 46.531 27.953 6.977 11.468-46.036c7.636 2.075 15.047 3.988 22.302 5.792l-11.43 45.819 27.987 6.978 11.579-46.443c47.721 9.037 83.603 5.393 98.706-37.798 12.17-34.774-.605-54.831-25.711-67.911 18.286-4.22 32.059-16.254 35.731-41.114l-.009-.007zm-63.939 89.718c-8.649 34.773-67.16 15.976-86.13 11.262l15.367-61.645c18.969 4.739 79.801 14.117 70.764 50.383zm8.654-90.222c-7.889 31.631-56.588 15.561-72.386 11.62l13.933-55.907c15.797 3.94 66.672 11.294 58.456 44.287z" fill="#fff"/></svg>

<svg width="512" height="512" viewBox="0 0 512 512" fill="none" xmlns="http://www.w3.org/2000/svg">
<path d="M503.37 317.686C469.309 454.295 330.931 537.432 194.291 503.366C57.7085 469.309 -25.4382 330.938 8.63774 194.34C42.6837 57.7169 181.062 -25.4266 317.659 8.63048C454.29 42.6876 537.431 181.074 503.367 317.688L503.369 317.686H503.37Z" fill="url(#paint0_linear_613_5639)"/>
<path d="M368.457 219.834C373.533 185.873 347.695 167.618 312.362 155.44L323.824 109.438L295.839 102.46L284.681 147.251C277.324 145.415 269.769 143.685 262.259 141.97L273.498 96.883L245.53 89.9053L234.062 135.893C227.974 134.506 221.994 133.135 216.193 131.691L216.225 131.546L177.633 121.903L170.189 151.812C170.189 151.812 190.951 156.574 190.514 156.867C201.846 159.698 203.895 167.204 203.555 173.154L190.499 225.562C191.279 225.76 192.291 226.047 193.408 226.496C192.474 226.264 191.481 226.011 190.45 225.764L172.149 299.18C170.764 302.625 167.249 307.795 159.326 305.832C159.606 306.239 138.986 300.753 138.986 300.753L125.092 332.807L161.51 341.892C168.285 343.592 174.924 345.371 181.462 347.043L169.882 393.574L197.835 400.551L209.303 354.515C216.939 356.59 224.35 358.503 231.605 360.307L220.175 406.126L248.162 413.104L259.741 366.661C307.462 375.698 343.344 372.054 358.447 328.863C370.617 294.089 357.842 274.032 332.736 260.952C351.022 256.732 364.795 244.698 368.467 219.838L368.458 219.831L368.457 219.834ZM304.518 309.552C295.869 344.325 237.358 325.528 218.388 320.814L233.755 259.169C252.724 263.908 313.556 273.286 304.519 309.552H304.518ZM313.172 219.33C305.283 250.961 256.584 234.891 240.786 230.95L254.719 175.043C270.516 178.983 321.391 186.337 313.175 219.33H313.172Z" fill="white"/>
<defs>
<linearGradient id="paint0_linear_613_5639" x1="-83.1237" y1="29.6875" x2="608.321" y2="402" gradientUnits="userSpaceOnUse">
<stop stop-color="#2A2CBF"/>
<stop offset="0.482532" stop-color="#6335FF"/>
<stop offset="0.905715" stop-color="#BD89FF"/>
</linearGradient>
</defs>
</svg>
